_includes/icons/ios-settings.svg

<svg fill="#666" height="50" viewBox="0 0 50 50" width="50" xmlns="http://www.w3.org/2000/svg"><path d="m22.205078 2a1.0001 1.0001 0 0 0 -.986328.8378906l-.972656 5.9550782c-1.169585.3402283-2.284851.799304-3.335938 1.3710932l-4.914062-3.5097651a1.0001 1.0001 0 0 0 -1.28711.1054687l-3.8906246 3.8867184a1.0001 1.0001 0 0 0 -.1113282 1.28125l3.4570308 4.945313c-.580608 1.057224-1.0498522 2.178777-1.398437 3.359375l-5.9296875.986328a1.0001 1.0001 0 0 0 -.8339844.986328v5.5a1.0001 1.0001 0 0 0 .8242188.986328l5.9335937 1.050782c.3466951 1.178551.812957 2.300877 1.3945314 3.359374l-3.5000001 4.896485a1.0001 1.0001 0 0 0 .1054687 1.287109l3.8886724 3.890625a1.0001 1.0001 0 0 0 1.279296.113281l4.955078-3.46875c1.054187.575168 2.172182 1.037616 3.345704 1.38086l.990234 5.96289a1.0001 1.0001 0 0 0 .986328.835938h5.5a1.0001 1.0001 0 0 0 .986328-.826172l1.060547-5.986328c1.16868-.348503 2.281419-.817803 3.330078-1.396484l4.988281 3.5a1.0001 1.0001 0 0 0 1.28125-.111328l3.888672-3.892579a1.0001 1.0001 0 0 0 .103516-1.291015l-3.556641-4.9375c.568674-1.043636 1.026806-2.149719 1.367188-3.310547l6.017578-1.054688a1.0001 1.0001 0 0 0 .826172-.986328v-5.5a1.0001 1.0001 0 0 0 -.837891-.986328l-6.007812-.982422c-.342664-1.159454-.802063-2.263558-1.371094-3.30664l3.507812-4.998047a1.0001 1.0001 0 0 0 -.111328-1.28125l-3.890625-3.8886721a1.0001 1.0001 0 0 0 -1.291015-.1035157l-4.923828 3.5410158c-1.04908-.5763619-2.162553-1.0431804-3.333985-1.388672l-1.046875-5.984375a1.0001 1.0001 0 0 0 -.986328-.828125zm.851563 2h3.808593l.996094 5.6855469a1.0001 1.0001 0 0 0 .742188.7988281c1.46251.364457 2.836091.942174 4.089843 1.701172a1.0001 1.0001 0 0 0 1.101563-.042969l4.679687-3.3632811 2.69336 2.6933591-3.332031 4.748047a1.0001 1.0001 0 0 0 -.039063 1.089844c.751491 1.250924 1.321458 2.615832 1.685547 4.070312a1.0001 1.0001 0 0 0 .808594.744141l5.707031.933594v3.808594l-5.71875 1.003906a1.0001 1.0001 0 0 0 -.796875.746094c-.359877 1.452629-.930188 2.817499-1.681641 4.068359a1.0001 1.0001 0 0 0 .044922 1.099609l3.378906 4.689453-2.693359 2.695313-4.740234-3.326172a1.0001 1.0001 0 0 0 -1.09375-.035156c-1.247516.758991-2.622511 1.339434-4.080078 1.708984a1.0001 1.0001 0 0 0 -.740235.794922l-1.009765 5.6875h-3.814454l-.941406-5.662109a1.0001 1.0001 0 0 0 -.746094-.806641c-1.463384-.360693-2.84314-.93754-4.105468-1.695312a1.0001 1.0001 0 0 0 -1.087891.039062l-4.703125 3.294922-2.6953125-2.699219 3.3242185-4.646484a1.0001 1.0001 0 0 0 .041016-1.09961c-.76602-1.265754-1.345353-2.645396-1.710938-4.115234a1.0001 1.0001 0 0 0 -.7949215-.742187l-5.6308594-1v-3.814454l5.6269531-.935546a1.0001 1.0001 0 0 0 .8066408-.744141c.368726-1.474904.947778-2.854318 1.710937-4.117188a1.0001 1.0001 0 0 0 -.035156-1.091797l-3.2851561-4.695312 2.6972661-2.6953125 4.662109 3.3320315a1.0001 1.0001 0 0 0 1.095703.042969c1.255658-.754145 2.638617-1.326357 4.103516-1.685547a1.0001 1.0001 0 0 0 .748046-.8105472zm1.943359 13c-4.406433 0-8 3.593567-8 8s3.593567 8 8 8 8-3.593567 8-8-3.593567-8-8-8zm0 2c3.325553 0 6 2.674447 6 6s-2.674447 6-6 6-6-2.674447-6-6 2.674447-6 6-6z"/></svg>

<svg xmlns="http://www.w3.org/2000/svg" viewBox="0 0 50 50" width="50" height="50" fill="#666"><path style="line-height:normal;text-indent:0;text-align:start;text-decoration-line:none;text-decoration-style:solid;text-decoration-color:#000;text-transform:none;block-progression:tb;isolation:auto;mix-blend-mode:normal" d="M 22.205078 2 A 1.0001 1.0001 0 0 0 21.21875 2.8378906 L 20.246094 8.7929688 C 19.076509 9.1331971 17.961243 9.5922728 16.910156 10.164062 L 11.996094 6.6542969 A 1.0001 1.0001 0 0 0 10.708984 6.7597656 L 6.8183594 10.646484 A 1.0001 1.0001 0 0 0 6.7070312 11.927734 L 10.164062 16.873047 C 9.583454 17.930271 9.1142098 19.051824 8.765625 20.232422 L 2.8359375 21.21875 A 1.0001 1.0001 0 0 0 2.0019531 22.205078 L 2.0019531 27.705078 A 1.0001 1.0001 0 0 0 2.8261719 28.691406 L 8.7597656 29.742188 C 9.1064607 30.920739 9.5727226 32.043065 10.154297 33.101562 L 6.6542969 37.998047 A 1.0001 1.0001 0 0 0 6.7597656 39.285156 L 10.648438 43.175781 A 1.0001 1.0001 0 0 0 11.927734 43.289062 L 16.882812 39.820312 C 17.936999 40.39548 19.054994 40.857928 20.228516 41.201172 L 21.21875 47.164062 A 1.0001 1.0001 0 0 0 22.205078 48 L 27.705078 48 A 1.0001 1.0001 0 0 0 28.691406 47.173828 L 29.751953 41.1875 C 30.920633 40.838997 32.033372 40.369697 33.082031 39.791016 L 38.070312 43.291016 A 1.0001 1.0001 0 0 0 39.351562 43.179688 L 43.240234 39.287109 A 1.0001 1.0001 0 0 0 43.34375 37.996094 L 39.787109 33.058594 C 40.355783 32.014958 40.813915 30.908875 41.154297 29.748047 L 47.171875 28.693359 A 1.0001 1.0001 0 0 0 47.998047 27.707031 L 47.998047 22.207031 A 1.0001 1.0001 0 0 0 47.160156 21.220703 L 41.152344 20.238281 C 40.80968 19.078827 40.350281 17.974723 39.78125 16.931641 L 43.289062 11.933594 A 1.0001 1.0001 0 0 0 43.177734 10.652344 L 39.287109 6.7636719 A 1.0001 1.0001 0 0 0 37.996094 6.6601562 L 33.072266 10.201172 C 32.023186 9.6248101 30.909713 9.1579916 29.738281 8.8125 L 28.691406 2.828125 A 1.0001 1.0001 0 0 0 27.705078 2 L 22.205078 2 z M 23.056641 4 L 26.865234 4 L 27.861328 9.6855469 A 1.0001 1.0001 0 0 0 28.603516 10.484375 C 30.066026 10.848832 31.439607 11.426549 32.693359 12.185547 A 1.0001 1.0001 0 0 0 33.794922 12.142578 L 38.474609 8.7792969 L 41.167969 11.472656 L 37.835938 16.220703 A 1.0001 1.0001 0 0 0 37.796875 17.310547 C 38.548366 18.561471 39.118333 19.926379 39.482422 21.380859 A 1.0001 1.0001 0 0 0 40.291016 22.125 L 45.998047 23.058594 L 45.998047 26.867188 L 40.279297 27.871094 A 1.0001 1.0001 0 0 0 39.482422 28.617188 C 39.122545 30.069817 38.552234 31.434687 37.800781 32.685547 A 1.0001 1.0001 0 0 0 37.845703 33.785156 L 41.224609 38.474609 L 38.53125 41.169922 L 33.791016 37.84375 A 1.0001 1.0001 0 0 0 32.697266 37.808594 C 31.44975 38.567585 30.074755 39.148028 28.617188 39.517578 A 1.0001 1.0001 0 0 0 27.876953 40.3125 L 26.867188 46 L 23.052734 46 L 22.111328 40.337891 A 1.0001 1.0001 0 0 0 21.365234 39.53125 C 19.90185 39.170557 18.522094 38.59371 17.259766 37.835938 A 1.0001 1.0001 0 0 0 16.171875 37.875 L 11.46875 41.169922 L 8.7734375 38.470703 L 12.097656 33.824219 A 1.0001 1.0001 0 0 0 12.138672 32.724609 C 11.372652 31.458855 10.793319 30.079213 10.427734 28.609375 A 1.0001 1.0001 0 0 0 9.6328125 27.867188 L 4.0019531 26.867188 L 4.0019531 23.052734 L 9.6289062 22.117188 A 1.0001 1.0001 0 0 0 10.435547 21.373047 C 10.804273 19.898143 11.383325 18.518729 12.146484 17.255859 A 1.0001 1.0001 0 0 0 12.111328 16.164062 L 8.8261719 11.46875 L 11.523438 8.7734375 L 16.185547 12.105469 A 1.0001 1.0001 0 0 0 17.28125 12.148438 C 18.536908 11.394293 19.919867 10.822081 21.384766 10.462891 A 1.0001 1.0001 0 0 0 22.132812 9.6523438 L 23.056641 4 z M 25 17 C 20.593567 17 17 20.593567 17 25 C 17 29.406433 20.593567 33 25 33 C 29.406433 33 33 29.406433 33 25 C 33 20.593567 29.406433 17 25 17 z M 25 19 C 28.325553 19 31 21.674447 31 25 C 31 28.325553 28.325553 31 25 31 C 21.674447 31 19 28.325553 19 25 C 19 21.674447 21.674447 19 25 19 z"/></svg>
